X:121
T: Beteg a szeretőm szegény...
M: 2/4
L: 1/4
K: F
gd/e/ | fd | fd | 
gg | gc | dB | 
c/B/G/G/ | Bc | dB | 
B/c/d | d<A | G2 | G2 | 

